dist/img/telegram.svg

<svg width="24" height="24" viewBox="0 0 24 24" fill="none" xmlns="http://www.w3.org/2000/svg">
<g id="telegram">
<path id="Vector" d="M10.0631 14.264L9.7653 18.7312C10.1913 18.7312 10.3758 18.536 10.5971 18.3016L12.5944 16.2656L16.733 19.4983C17.492 19.9495 18.0267 19.7119 18.2315 18.7535L20.9481 5.17602L20.9488 5.17522C21.1896 3.97843 20.5431 3.51043 19.8035 3.80403L3.83565 10.3248C2.74588 10.776 2.76238 11.424 3.6504 11.7176L7.73275 13.072L17.2152 6.74321C17.6615 6.42801 18.0672 6.60241 17.7335 6.91761L10.0631 14.264Z" fill="black"/>
</g>
</svg>

<svg width="24" height="24" fill="none" xmlns="http://www.w3.org/2000/svg"><path d="M10.063 14.264l-.298 4.467c.426 0 .61-.195.832-.43l1.997-2.035 4.139 3.232c.759.451 1.294.214 1.498-.745l2.717-13.577c.242-1.198-.405-1.666-1.145-1.372l-15.967 6.52c-1.09.452-1.074 1.1-.186 1.394l4.083 1.354 9.482-6.329c.447-.315.852-.14.518.175l-7.67 7.346z" fill="#000"/></svg>
